!! 00000] TT[WS
!!!OTL: Da shengchan
!!!ARE: Asia, China,ÿShanxi Wutaishan
!! Ethnic Group: Han
!! WI, 63 (1)
!!!SCT: J0072
!!!YEM: Copyright 1995, estate of Helmut Schaffrath.
**kern
*ICvox
*Ivox
*M2/4
*k[b-]
*F:
{4dd
8dd
8cc
=1
4dd
8dd
8cc
=2
8cc
8dd
4ff
=3
8ff
8dd
4cc}
=4
{8cc
8dd
8ff
8ff
=5
8ff
8dd
8cc
8ff
=6
8dd
8cc
8a
8g
=7
2f}
=8
{8cc
8d
4f
=9
8g
4b-
8dd
=10
8cc
8b-
8g
8b-
=11
2cc}
=12
{8cc
4cc
8dd
=13
4ff
8ff
8dd
=14
4b-
4cc
=15
8b-
8g
4f}
==
!!!AGN: Xiaodiao. Laodong, Zhongzhi
!!!ONB: ESAC (Essen Associative Code) Database: CHINA
!!!AMT: simple duple
!!!AIN: vox
!!!EED: Helmut Schaffrath
!!!EEV: 1.0
*-
